X: 1
T: Maya's
M: 6/8
L: 1/8
R: jig
K: Ador
D|EAB cBA|age fdg|gfd g/2f/2gd|edB GED|
EAB cBA|age fdg|gfd edg|dBG A2 D|
EAB cBA|age fdg|gfd g/2f/2gd|edB GED|
EAB cBA|age fdg|gfd edg|dBG AdB|
cBA EAc|FAc edc|BB/2B/2B gg/2g/2g|dGA BAG|
cEG FcA |Bge dBG|Aag efe |dBG AdB|
cBA EAc|FAc edc|BB/2B/2B gg/2g/2g|dGA BAG|
cEG FcA |Bge dBG|Aag ege |dBG A2|
